X:198
T:Dawggy Mountain Breakdown
C:David Grisman
N:TablEdited by Richard Van Patten
L:1/8
Q:1/4=220
M:4/4
K:C
z6 A_B | "G"BD GB AG ED | "C"EF G2 G2 A_B | (3"G"B_BA G=B AG ED | "Em"GE2E3 A_B | 
(3"G"B_BA G=B AG ED | "C"cB AG "F"FE DC | "D"A,B, CD ^FE DF | ED E^F "G"G4 | "G"dc Bc2d2B | 
"C"cd e^f gc A2 | "G"Bc dc cB3 | "Em"cB G2 G2 G2 | "G"dc Bc2d3 | "C"z^f ed "F"cB AG | 
"D"^FG AB cB Ac | BA Bc "G"d4 | "G"dg2z/[g/d/] [g2d2] de | g[b2g2]z/[b/g/] [b4g4] | 
"C"e2 ef cd cG | "F"Af A2 [A4F4] | "G"dg ed Be d2 | GB AG E2 AB | "C"cB AG "F"FG FE | 
"D"DE DB, "G"G,4 | dg2z/[g/d/] [g2d2] de | g[b2g2]z/[b/g/] [b4g4] | "C"ee ed cd cd | 
"F"aa ag f4 | "G"ba ga eg ed | Bd BG [E2G,2] AB | "C"cB AG "F"FG FE | "D"DE DB, "G"G,4 | 
 

